X:3406
T:La Justine
O:england
M:3/8
L:1/8
K:C
eed|dc2|e/d/ea|g/f/ed|\
eed|dc2|e/d/ea|g3:|
|:d/e/fe|dg2|f/e/dc|BG2|\
d/e/fe|dg2|f/e/dB|c3:|


